X:1
T:Hamp Sewell
T:Rev. Johnson Oatman, Jr.
T:What Will Your Harvest Be?
%%score { ( 1 2 ) | ( 3 4 ) }
L:1/8
M:6/8
K:Bb
V:1 treble 
V:2 treble 
V:3 bass 
V:4 bass 
V:1
{/x} DE=E G2 F | d3 B3 | BAd B2 G | F3- F2 z | FED E2 G | G3 F3 | ABc A2 F | c3- c3 | DE=E G2 G | %9
w: Now is the au\- tumn|com\- ing,|Now in the win\- ter|near, *|What have you gained as|har\- vest|Out of the wan\- ing|year? *|Where are your sheaves, my|
w: ||||||||Did you sow seeds of|
w: Soon will the aw\- ful|trump\- et|Ring thro' your star\- ry|dome; *|Soon will the an\- gel|reap\- ers|Gath\- er the har\- vest|home; *|Then will they glean for|
 d3 B3 | BAc B2 F | F3- F2 z | BAB c2 B | e2 G d2 c | BAB d2 c | B3- B2 z |"^Chorus" d3- ded | %17
w: broth\- er?|What will the Mas\- ter|see *|When He shall come to|view the reap\- ing?|What will our har\- vest|be? *|What * will your|
w: kind\- ness,|Seed that from sin was|free? *|When you at last your|crop must gath\- er,|What will your har\- vest|be? *||
w: Je\- sus|Sheaves for e\- ter\- ni\-|ty; *|Will they be sheaves of|good or e\- vil?|What will your har\- vest|be? *||
 d2 c G3 | c3- cec | c2 B F3 | BAB c2 B | e2 G d2 c | BAB d2 c | B3- B2 z |] %24
w: har\- vest be?|What * will your|har\- vest be?|In\- to life's fur\- row|seeds are fall\- ing;|What will your har\- vest|be? *|
w: |||||||
w: |||||||
V:2
 B,C^C =C2 D | F3 F3 | EEE E2 E | D3- D2 z | DC=B, C2 E | E3 D3 | EDE =E2 _E | E3- E3 | %8
w: ||||||||
w: Swift\- ly your day is|go\- ing,|Think ere the shad\- ows|creep; *|What you have long been|sow\- ing,|That must ye al- so|reap. *|
 B,C^C C2 D | F3 F3 | EEE E2 D | D3- D2 z | DDD D2 D | E2 E G2 G | FFF F2 E | D3- D2 z | FFF FGF | %17
w: |||||||||
w: ||||||||What will your har- vest, your|
 =E2 E E3 | EEE EFE | D2 D D3 | DDD D2 D | E2 E G2 G | FFF F2 E | D3- D2 z |] %24
w: |||||||
w: har- vest be?|What will your har- vest, your|har- vest be?|||||
V:3
 F,F,F, =E,2 F, | F,3 B,3 | G,G,G, G,2 B, | B,3- B,2 z | B,A,^G, A,2 A, | B,3 B,3 | CB,A, C2 B, | %7
 A,3- A,3 | F,F,F, =E,2 F, | F,3 B,3 | G,G,G, G,2 B, | B,3- B,2 z | F,F,F, _A,2 A, | G,2 B, F2 E | %14
 DCD B,2 A, | B,3- B,2 z | B,B,B, B,B,B, | B,2 G, B,3 | A,A,A, A,A,A, | B,2 F, B,3 | %20
 F,F,F, _A,2 A, | G,2 B, F2 E | DCD B,2 A, | B,3- B,2 z |] %24
V:4
 B,,B,,B,, B,,2 B,, | B,,3 D,3 | E,E,E, E,2 E, | B,,3- B,,2 z | F,F,F, F,2 F, | B,,3 B,,3 | %6
 F,F,F, C,2 C, | F,3- F,3 | B,,B,,B,, B,,2 B,, | B,,3 D,3 | E,E,E, E,2 E, | B,,3- B,,2 z | %12
 B,,B,,B,, B,,2 B,, | E,2 E, E,2 E, | F,F,F, F,2 F, | B,,3- B,,2 z | B,,B,,B,, B,,B,,B,, | %17
 C,2 C, C, x2 | F,F,F, F,F,F, | B,,2 B,, B,,3 | B,,B,,B,, B,,2 B,, | E,2 E, E,2 E, | %22
 F,F,F, F,2 F, | B,,3- B,,2 z |] %24

